packages/ffe-icons/icons/filled/sm/controller_gen.svg

<svg xmlns="http://www.w3.org/2000/svg" height="20" viewBox="0 -960 960 960" width="20"><path d="M479.955-274.001q85.814 0 145.929-60.57 60.115-60.57 60.115-145.384 0-85.814-60.07-145.929-60.07-60.115-145.884-60.115-84.814 0-145.429 60.07-60.615 60.07-60.615 145.884 0 84.814 60.57 145.429 60.57 60.615 145.384 60.615Zm-.03-51.998q-64.156 0-109.041-44.96-44.885-44.96-44.885-109.116t44.96-109.041q44.96-44.885 109.116-44.885t109.041 44.96q44.885 44.96 44.885 109.116t-44.96 109.041q-44.96 44.885-109.116 44.885Zm-18.001-135.925q8.692 7.693 18.076 7.693t18.076-7.693l36-36q8.693-8.692 8.693-18.076t-8.693-18.076q-8.692-8.693-18.076-8.693t-18.076 8.693l-36 36q-7.693 8.692-7.693 18.076t7.693 18.076ZM228.309-164.001q-27.308 0-45.808-18.5t-18.5-45.808v-503.382q0-27.308 18.5-45.808t45.808-18.5h503.382q27.308 0 45.808 18.5t18.5 45.808v503.382q0 27.308-18.5 45.808t-45.808 18.5H228.309Z"/></svg>

<svg xmlns="http://www.w3.org/2000/svg" height="20" viewBox="0 -960 960 960" width="20"><path d="M479.95-274q85.82 0 145.93-60.57Q686-395.14 686-479.95q0-85.82-60.07-145.93Q565.86-686 480.05-686q-84.82 0-145.43 60.07Q274-565.86 274-480.05q0 84.82 60.57 145.43Q395.14-274 479.95-274Zm-.02-52q-64.16 0-109.05-44.96Q326-415.92 326-480.07q0-64.16 44.96-109.05Q415.92-634 480.07-634q64.16 0 109.05 44.96Q634-544.08 634-479.93q0 64.16-44.96 109.05Q544.08-326 479.93-326Zm-18.01-135.92q8.7 7.69 18.08 7.69 9.38 0 18.08-7.69l36-36q8.69-8.7 8.69-18.08 0-9.38-8.69-18.08-8.7-8.69-18.08-8.69-9.38 0-18.08 8.69l-36 36q-7.69 8.7-7.69 18.08 0 9.38 7.69 18.08ZM228.31-164q-27.31 0-45.81-18.5Q164-201 164-228.31v-503.38q0-27.31 18.5-45.81Q201-796 228.31-796h503.38q27.31 0 45.81 18.5Q796-759 796-731.69v503.38q0 27.31-18.5 45.81Q759-164 731.69-164H228.31Z"/></svg>
